X:16218
T:Sweet Lips. BF11.18
M:6/8
Q:120
C:Browne A hand
S:MS11,c1800.,Browne Coll.,Lakes
R:Jig
O:England
A:Lakes
N:Written on the stave in large ornametal capital letters after the tune
N:is the word "MAN"..CGP
Z:vmp.Chris Partington
K:D
"Qus"A/G/|F2A ABc|d3f2d|c2A Bcd|e3E2G|!
F2A ABc|d3f2d|c2A ABc|d3D2::!
g|f2ed2f|g2be2g|f2ed2f|ecAA2g|!
f2ed2f|g2be2g|f2d gec|d3D2:|]
